src/assets/icono-pagina-lista.svg

<?xml version="1.0" encoding="UTF-8" standalone="no"?>
<svg
   xmlns:dc="http://purl.org/dc/elements/1.1/"
   xmlns:cc="http://creativecommons.org/ns#"
   xmlns:rdf="http://www.w3.org/1999/02/22-rdf-syntax-ns#"
   xmlns:svg="http://www.w3.org/2000/svg"
   xmlns="http://www.w3.org/2000/svg"
   xmlns:sodipodi="http://sodipodi.sourceforge.net/DTD/sodipodi-0.dtd"
   xmlns:inkscape="http://www.inkscape.org/namespaces/inkscape"
   version="1.1"
   x="0px"
   y="0px"
   width="48px"
   height="48px"
   viewBox="0 0 48 48"
   enable-background="new 0 0 48 48"
   xml:space="preserve"
   id="svg2"
   inkscape:version="0.91 r13725"
   sodipodi:docname="icono-pagina-lista.svg"><metadata
     id="metadata18"><rdf:RDF><cc:Work
         rdf:about=""><dc:format>image/svg+xml</dc:format><dc:type
           rdf:resource="http://purl.org/dc/dcmitype/StillImage" /></cc:Work></rdf:RDF></metadata><defs
     id="defs16" /><sodipodi:namedview
     pagecolor="#ffffff"
     bordercolor="#666666"
     borderopacity="1"
     objecttolerance="10"
     gridtolerance="10"
     guidetolerance="10"
     inkscape:pageopacity="0"
     inkscape:pageshadow="2"
     inkscape:window-width="1855"
     inkscape:window-height="1056"
     id="namedview14"
     showgrid="false"
     inkscape:zoom="13.538149"
     inkscape:cx="15.465127"
     inkscape:cy="22.972354"
     inkscape:window-x="1985"
     inkscape:window-y="24"
     inkscape:window-maximized="1"
     inkscape:current-layer="svg2" /><ellipse
     style="clip-rule:evenodd;opacity:0.96700003;fill:#00d1b2;fill-opacity:1;fill-rule:evenodd;stroke:none;stroke-width:2.70000005;stroke-linejoin:round;stroke-miterlimit:4;stroke-dasharray:none;stroke-opacity:0.90196078"
     id="path5981"
     cx="23.869423"
     cy="23.973885"
     rx="23.890522"
     ry="23.974215" /><g
     id="g4152"
     transform="matrix(0.71377179,0,0,0.71377179,7.312669,5.9184607)"><polygon
       id="polygon4"
       points="30,3 40,13 40,45 8,45 8,3 "
       style="fill:#d3d3d3" /><polygon
       id="polygon6"
       points="38.5,14 29,14 29,4.5 "
       style="fill:#ccf6f0;fill-opacity:1" /><g
       id="g8"><rect
         id="rect10"
         height="5"
         width="11"
         y="9"
         x="14"
         style="fill:#000000;fill-opacity:0.64734298" /><path
         id="path12"
         d="m 34,26 -16,0 0,-2 16,0 0,2 z m 0,-6 -16,0 0,2 16,0 0,-2 z m 0,12 -16,0 0,2 16,0 0,-2 z m 0,4 -16,0 0,2 16,0 0,-2 z m 0,-8 -16,0 0,2 16,0 0,-2 z m -20,-6 2,0 0,-2 -2,0 0,2 z m 0,4 2,0 0,-2 -2,0 0,2 z m 0,12 2,0 0,-2 -2,0 0,2 z m 0,-8 2,0 0,-2 -2,0 0,2 z m 0,4 2,0 0,-2 -2,0 0,2 z"
         inkscape:connector-curvature="0"
         style="fill:#4a4a4a;fill-opacity:1" /></g></g></svg>

<svg version="1.1" xmlns="http://www.w3.org/2000/svg" xmlns:xlink="http://www.w3.org/1999/xlink" x="0px" y="0px" width="48px" height="48px" viewBox="0 0 48 48" enable-background="new 0 0 48 48" xml:space="preserve">
<polygon fill="#90CAF9" points="40,45 8,45 8,3 30,3 40,13 "></polygon>
<polygon fill="#E1F5FE" points="38.5,14 29,14 29,4.5 "></polygon>
<g>
	<rect x="14" y="9" fill="#1565C0" width="11" height="5"></rect>
	<path fill="#1565C0" d="M34,26H18v-2h16V26z M34,20H18v2h16V20z M34,32H18v2h16V32z M34,36H18v2h16V36z M34,28H18v2h16V28z M14,22
		h2v-2h-2V22z M14,26h2v-2h-2V26z M14,38h2v-2h-2V38z M14,30h2v-2h-2V30z M14,34h2v-2h-2V34z"></path>
</g>
</svg>
